res/lupa.svg

<svg id="eHtw7jpaPLD1" xmlns="http://www.w3.org/2000/svg" xmlns:xlink="http://www.w3.org/1999/xlink" viewBox="-0.5 -0.5 140 140" shape-rendering="geometricPrecision" text-rendering="geometricPrecision"><ellipse rx="57.11458" ry="58.353208" transform="matrix(1.206042 0 0 1.199592 69.5 69.5)" fill="#d2dbed" stroke-width="0"/><g transform="matrix(.929927 0 0 0.941294 4.966618 4.003345)"><g><rect width="60" height="22.28" rx="3.34" ry="3.34" transform="matrix(.707107-.707107 0.707107 0.707107 16.369627 107.016032)" fill="#fff" stroke="#000"/></g><g><path d="M54,50c0-19.33,15.67-35,35-35c9.28,0,18.18,3.69,24.75,10.25C120.31,31.82,124,40.72,124,50s-3.69,18.18-10.25,24.75C107.18,81.31,98.28,85,89,85s-18.18-3.69-24.75-10.25C57.69,68.18,54,59.28,54,50ZM89,28c-12.15,0-22,9.85-22,22s9.85,22,22,22s22-9.85,22-22-9.85-22-22-22Z" transform="matrix(.707107 0.707107-.707107 0.707107 61.422836-48.287842)" fill="#fff" stroke="#000" stroke-miterlimit="10"/></g></g></svg>

<?xml version="1.0" encoding="UTF-8"?>
<!-- Do not edit this file with editors other than draw.io -->
<!DOCTYPE svg PUBLIC "-//W3C//DTD SVG 1.1//EN" "http://www.w3.org/Graphics/SVG/1.1/DTD/svg11.dtd">
<svg xmlns="http://www.w3.org/2000/svg" xmlns:xlink="http://www.w3.org/1999/xlink" version="1.1" width="140px" height="140px" viewBox="-0.5 -0.5 140 140" content="&lt;mxfile host=&quot;app.diagrams.net&quot; modified=&quot;2024-03-11T16:20:58.837Z&quot; agent=&quot;Mozilla/5.0 (Windows NT 10.0; Win64; x64; rv:123.0) Gecko/20100101 Firefox/123.0&quot; version=&quot;24.0.4&quot; etag=&quot;Szg3OW8L-UrxN_dgeJwl&quot; type=&quot;google&quot; scale=&quot;1&quot; border=&quot;0&quot;&gt;&#xA;  &lt;diagram name=&quot;Página-1&quot; id=&quot;joNlzIwyonvDzmoDAKAp&quot;&gt;&#xA;    &lt;mxGraphModel dx=&quot;1050&quot; dy=&quot;558&quot; grid=&quot;1&quot; gridSize=&quot;10&quot; guides=&quot;1&quot; tooltips=&quot;1&quot; connect=&quot;1&quot; arrows=&quot;1&quot; fold=&quot;1&quot; page=&quot;1&quot; pageScale=&quot;1&quot; pageWidth=&quot;827&quot; pageHeight=&quot;1169&quot; math=&quot;0&quot; shadow=&quot;0&quot;&gt;&#xA;      &lt;root&gt;&#xA;        &lt;mxCell id=&quot;0&quot; /&gt;&#xA;        &lt;mxCell id=&quot;1&quot; parent=&quot;0&quot; /&gt;&#xA;        &lt;mxCell id=&quot;2&quot; value=&quot;&quot; style=&quot;group;rotation=45;&quot; vertex=&quot;1&quot; connectable=&quot;0&quot; parent=&quot;1&quot;&gt;&#xA;          &lt;mxGeometry x=&quot;620&quot; y=&quot;600&quot; width=&quot;70&quot; height=&quot;126.13999999999999&quot; as=&quot;geometry&quot; /&gt;&#xA;        &lt;/mxCell&gt;&#xA;        &lt;mxCell id=&quot;3&quot; value=&quot;&quot; style=&quot;rounded=1;whiteSpace=wrap;html=1;rotation=-45;&quot; vertex=&quot;1&quot; parent=&quot;2&quot;&gt;&#xA;          &lt;mxGeometry x=&quot;-18.54&quot; y=&quot;75.54&quot; width=&quot;60&quot; height=&quot;22.28&quot; as=&quot;geometry&quot; /&gt;&#xA;        &lt;/mxCell&gt;&#xA;        &lt;mxCell id=&quot;4&quot; value=&quot;&quot; style=&quot;verticalLabelPosition=bottom;verticalAlign=top;html=1;shape=mxgraph.basic.donut;dx=13;rotation=45;&quot; vertex=&quot;1&quot; parent=&quot;2&quot;&gt;&#xA;          &lt;mxGeometry x=&quot;20&quot; y=&quot;8&quot; width=&quot;70&quot; height=&quot;70&quot; as=&quot;geometry&quot; /&gt;&#xA;        &lt;/mxCell&gt;&#xA;      &lt;/root&gt;&#xA;    &lt;/mxGraphModel&gt;&#xA;  &lt;/diagram&gt;&#xA;&lt;/mxfile&gt;&#xA;"><defs/><g><g/><g><rect x="15.46" y="82.54" width="60" height="22.28" rx="3.34" ry="3.34" fill="rgb(255, 255, 255)" stroke="rgb(0, 0, 0)" transform="rotate(-45,45.46,93.68)" pointer-events="all"/></g><g><path d="M 54 50 C 54 30.67 69.67 15 89 15 C 98.28 15 107.18 18.69 113.75 25.25 C 120.31 31.82 124 40.72 124 50 C 124 59.28 120.31 68.18 113.75 74.75 C 107.18 81.31 98.28 85 89 85 C 79.72 85 70.82 81.31 64.25 74.75 C 57.69 68.18 54 59.28 54 50 Z M 89 28 C 76.85 28 67 37.85 67 50 C 67 62.15 76.85 72 89 72 C 101.15 72 111 62.15 111 50 C 111 37.85 101.15 28 89 28 Z" fill="rgb(255, 255, 255)" stroke="rgb(0, 0, 0)" stroke-miterlimit="10" transform="rotate(45,89,50)" pointer-events="all"/></g></g></svg>
